X:3
T:Six Hundred Miles Away From Rosslare
R:reel
C:Dominiek Croymans
S:Dominiek Croymans <dominiek.croymans@SKYNET.BE> irtrad-l 2001-11-1
M:4/4
L:1/8
K:C
ae~e2 aage|ae~e2 ddcd|eA~A2 ccBA|GABc de^fg|ae~e2 aage|ae~e2 ddcd|eA~A2 c
cBA|GABG ~A3A:||
ABcd eA~A2|GABc dG~G2|ABcd eage|dcBA GABG|ABcd eA~A2|GABc dG~G2|~F2FG
~A2AB|cBAG A4:||
K:A
ae~e2 aafe|ae~e2 ddcd|eA~A2 ccBA|GABc defg|ae~e2 aafe|ae~e2 ddcd|eA
~A2 ccBA|GABG A4:||
ABcd eA~A2|GABc dG~G2|ABcd eafe|dcBA GABG|ABcd eA~A2|GABc dG~G2|~F2FG
~A2AB|cBAG A4:||
